X:715
T: Pride of Cloontia
T: P\'earla na gCluainte
S: B.Breathnach: "Ceol Rince na hEireann" II/195
Z: B.Black
L: 1/8
M: 4/4
R: reel
K: G
GA|B2 eg dBGB|AcBG AEED|B2 eg dBGB|AcBG A2 GA|
B2 eg dBGB|AcBG AGEf|g2 fg edBA|1 GBAF G2 :|2 GBAF G2||
Bd|gdBG DGBd|(3efg dB GA (3Bcd|gdBG DGBd|(3efg dB A2 Bd|
gdBG DGBd|(3efg dB GABd|g2 fg edBA|GBAF G2 :|

